X:4384
T:Morrison's Jig
O:england
R:double jig
C:Jig
M:6/8
L:1/8
K:D
EEE BEB|EBE AFD|EEE BEB|dcB AFD|
EEE BEB|EBE AFD|GFG FGA|dAG FED:|
Bee fee|aee fed|Bee fee|(3f^ga =g fed|
Bee fee|aee fed|edc d2B|AFD FGA|
Bee fee|aee fed|Bee fee  (3f^ga f def|gag fgf|
def gfg|edc d2B|AFD FGA|


